outputs/icons/content/android_round.svg

<svg xmlns="http://www.w3.org/2000/svg" width="1200" height="1200" fill="none"><g clip-path="url(#a)"><path fill="#000" d="M217.831 405.414a67.842 67.842 0 0 0-67.82 67.82V757.24a67.8 67.8 0 0 0 4.811 26.32 67.838 67.838 0 0 0 36.766 37.43 67.8 67.8 0 0 0 26.232 5.275 67.8 67.8 0 0 0 62.998-42.705 67.8 67.8 0 0 0 4.811-26.32V473.191a67.843 67.843 0 0 0-67.798-67.777m546.914-255.033 47.345-86.449a9.5 9.5 0 0 0 1.11-3.499 9.4 9.4 0 0 0-.32-3.655 9.5 9.5 0 0 0-1.69-3.256 9.4 9.4 0 0 0-9.965-3.148 9.4 9.4 0 0 0-5.615 4.501l-47.795 87.393a330.53 330.53 0 0 0-265.486-.129l-47.861-87.156a9.387 9.387 0 1 0-16.482 8.992l47.366 86.363C372.293 198.327 309.43 289.712 309.474 394.64H920.41c0-104.906-62.735-196.098-155.665-244.194zM475.954 283.918a25.627 25.627 0 1 1 9.98-49.282 25.63 25.63 0 0 1 15.776 23.677 25.629 25.629 0 0 1-25.756 25.605m278.191 0a25.66 25.66 0 0 1-23.76-15.783 25.66 25.66 0 0 1-1.49-14.831 25.65 25.65 0 0 1 46.505-9.26 25.65 25.65 0 0 1 4.305 14.269c0 6.783-2.69 13.29-7.485 18.09a25.6 25.6 0 0 1-18.075 7.515m-442.118 134.33V858.37a72.3 72.3 0 0 0 5.492 27.705 72.3 72.3 0 0 0 15.686 23.485 72.3 72.3 0 0 0 23.487 15.69 72.4 72.4 0 0 0 27.705 5.49h49.363v150.235a67.8 67.8 0 0 0 4.811 26.32 67.9 67.9 0 0 0 14.617 22.415A67.85 67.85 0 0 0 501.57 1150a67.8 67.8 0 0 0 26.23-5.28 67.8 67.8 0 0 0 22.15-15.01 67.9 67.9 0 0 0 14.615-22.415 67.7 67.7 0 0 0 4.815-26.32V930.74h91.555v150.235a67.82 67.82 0 0 0 19.865 47.955 67.819 67.819 0 0 0 115.775-47.955V930.74h49.365a72.35 72.35 0 0 0 27.7-5.505 72.4 72.4 0 0 0 23.485-15.685 72.5 72.5 0 0 0 15.695-23.48 72.4 72.4 0 0 0 5.51-27.7V418.227zm768.128 54.9a67.85 67.85 0 0 0-19.43-48.734 67.9 67.9 0 0 0-22.15-15.013 67.817 67.817 0 0 0-94.04 63.747v284.007a67.83 67.83 0 0 0 41.575 63.75 67.9 67.9 0 0 0 26.235 5.275 67.9 67.9 0 0 0 26.23-5.275 67.9 67.9 0 0 0 22.15-15.015 67.8 67.8 0 0 0 14.615-22.415 67.8 67.8 0 0 0 4.815-26.32z"/></g><defs><clipPath id="a"><path fill="#fff" d="M0 0h1200v1200H0z"/></clipPath></defs></svg>

<svg width="1200" height="1200" viewBox="0 0 1200 1200" fill="none" xmlns="http://www.w3.org/2000/svg"><g clip-path="url(#clip0_649_1689)"><path d="M217.831 405.414C199.846 405.42 182.599 412.567 169.881 425.284C157.163 438.002 150.017 455.249 150.011 473.234V757.24C149.851 766.245 151.486 775.195 154.822 783.56C158.157 791.93 163.127 799.55 169.44 805.975C175.752 812.4 183.281 817.505 191.588 820.99C199.894 824.475 208.812 826.265 217.82 826.265C226.828 826.265 235.745 824.475 244.052 820.99C252.359 817.505 259.888 812.4 266.201 805.975C272.513 799.55 277.482 791.93 280.818 783.56C284.154 775.195 285.79 766.245 285.629 757.24V473.191C285.612 455.217 278.463 437.985 265.752 425.277C253.04 412.569 235.805 405.426 217.831 405.414ZM764.745 150.381L812.09 63.932C812.685 62.85 813.06 61.661 813.2 60.433C813.335 59.206 813.225 57.964 812.88 56.778C812.535 55.593 811.96 54.486 811.19 53.522C810.415 52.559 809.46 51.757 808.38 51.162C807.295 50.567 806.11 50.192 804.88 50.057C803.655 49.921 802.41 50.029 801.225 50.374C800.04 50.718 798.935 51.294 797.97 52.066C797.005 52.838 796.205 53.793 795.61 54.875L747.815 142.268C705.975 123.896 660.78 114.398 615.085 114.376C569.39 114.354 524.185 123.808 482.329 142.139L434.468 54.983C433.275 52.797 431.264 51.174 428.875 50.472C426.486 49.769 423.916 50.045 421.73 51.238C419.545 52.43 417.922 54.442 417.22 56.83C416.517 59.22 416.793 61.789 417.986 63.975L465.352 150.338C372.293 198.327 309.43 289.712 309.474 394.64H920.41C920.41 289.734 857.675 198.542 764.745 150.446V150.381ZM475.954 283.918C470.89 283.892 465.948 282.367 461.751 279.535C457.553 276.703 454.288 272.69 452.369 268.005C450.45 263.319 449.962 258.169 450.967 253.206C451.972 248.244 454.425 243.689 458.016 240.119C461.607 236.55 466.176 234.123 471.144 233.147C476.113 232.171 481.26 232.689 485.934 234.636C490.608 236.583 494.601 239.87 497.409 244.084C500.215 248.299 501.715 253.25 501.71 258.313C501.705 261.688 501.035 265.028 499.74 268.143C498.442 271.258 496.543 274.087 494.15 276.465C491.757 278.844 488.918 280.728 485.795 282.006C482.673 283.285 479.329 283.934 475.954 283.918ZM754.145 283.918C749.065 283.934 744.1 282.444 739.87 279.634C735.64 276.825 732.34 272.822 730.385 268.135C728.43 263.447 727.915 258.286 728.895 253.304C729.88 248.322 732.32 243.744 735.91 240.15C739.495 236.557 744.07 234.109 749.05 233.118C754.03 232.125 759.195 232.635 763.885 234.58C768.575 236.525 772.58 239.819 775.4 244.044C778.215 248.27 779.715 253.236 779.705 258.313C779.705 265.096 777.015 271.603 772.22 276.403C767.43 281.203 760.93 283.906 754.145 283.918ZM312.027 418.248V858.37C312.019 867.875 313.885 877.29 317.519 886.075C321.153 894.86 326.483 902.84 333.205 909.56C339.927 916.285 347.909 921.615 356.692 925.25C365.476 928.88 374.891 930.75 384.397 930.74H433.76V1080.975C433.599 1089.98 435.235 1098.93 438.571 1107.295C441.907 1115.665 446.876 1123.28 453.188 1129.71C459.501 1136.135 467.031 1141.235 475.337 1144.72C483.644 1148.205 492.561 1150 501.57 1150C510.575 1150 519.495 1148.205 527.8 1144.72C536.11 1141.235 543.635 1136.135 549.95 1129.71C556.26 1123.28 561.23 1115.665 564.565 1107.295C567.905 1098.93 569.54 1089.98 569.38 1080.975V930.74H660.935V1080.975C660.935 1098.96 668.08 1116.21 680.8 1128.93C693.52 1141.65 710.77 1148.795 728.755 1148.795C746.74 1148.795 763.99 1141.65 776.71 1128.93C789.43 1116.21 796.575 1098.96 796.575 1080.975V930.74H845.94C855.445 930.74 864.855 928.875 873.64 925.235C882.42 921.6 890.4 916.27 897.125 909.55C903.845 902.83 909.18 894.85 912.82 886.07C916.455 877.29 918.33 867.875 918.33 858.37V418.227L312.027 418.248ZM1080.155 473.148C1080.315 464.142 1078.675 455.194 1075.34 446.826C1072.005 438.459 1067.035 430.84 1060.725 424.414C1054.41 417.988 1046.88 412.885 1038.575 409.401C1030.27 405.917 1021.35 404.122 1012.345 404.122C1003.335 404.122 994.42 405.917 986.11 409.401C977.805 412.885 970.275 417.988 963.965 424.414C957.65 430.84 952.68 438.459 949.345 446.826C946.01 455.194 944.375 464.142 944.535 473.148V757.155C944.375 766.16 946.01 775.11 949.345 783.475C952.68 791.845 957.65 799.465 963.965 805.89C970.275 812.315 977.805 817.42 986.11 820.905C994.42 824.385 1003.335 826.18 1012.345 826.18C1021.35 826.18 1030.27 824.385 1038.575 820.905C1046.88 817.42 1054.41 812.315 1060.725 805.89C1067.035 799.465 1072.005 791.845 1075.34 783.475C1078.675 775.11 1080.315 766.16 1080.155 757.155V473.148Z" fill="#1D1E23"/></g><defs><clipPath id="clip0_649_1689"><path width="24" fill="white" d="M0 0H1200V1200H0V0z"/></clipPath></defs></svg>
